docs/images/stokr.svg

<?xml version="1.0" encoding="UTF-8" standalone="no"?>
<svg width="567px" height="236px" viewBox="0 0 567 236" version="1.1" xmlns="http://www.w3.org/2000/svg" xmlns:xlink="http://www.w3.org/1999/xlink" xmlns:sketch="http://www.bohemiancoding.com/sketch/ns">
    <!-- Generator: Sketch 3.3.3 (12081) - http://www.bohemiancoding.com/sketch -->
    <title>stokr + smoke</title>
    <desc>Created with Sketch.</desc>
    <defs></defs>
    <g id="Page-1" stroke="none" stroke-width="1" fill="none" fill-rule="evenodd" sketch:type="MSPage">
        <g id="Desktop-HD" sketch:type="MSArtboardGroup" transform="translate(-437.000000, -186.000000)">
            <g id="stokr-+-smoke" sketch:type="MSLayerGroup" transform="translate(437.000000, 186.000000)">
                <g id="stokr" transform="translate(0.000000, 44.299065)" fill="#AAB8BF" sketch:type="MSShapeGroup">
                    <rect id="Rectangle-1" x="107.71875" y="32.1168224" width="46.5" height="46" rx="2"></rect>
                    <path d="M49.6845703,169.270882 C68.613376,169.270882 77.9736339,163.352863 77.765625,151.516647 C77.765625,147.778895 75.8935733,144.871798 72.1494141,142.795269 C68.4052548,140.71874 63.7251258,138.953716 58.1088867,137.500146 C52.4926476,136.046576 46.3564786,134.489202 39.7001953,132.827979 C33.043912,131.166756 26.80374,128.882608 20.9794922,125.975467 C15.1552443,123.068327 10.3711125,119.278718 6.62695313,114.606527 C2.88279377,109.934337 1.01074219,104.172055 1.01074219,97.3195093 C1.01074219,90.4669633 2.05077084,84.6008567 4.13085938,79.7210134 C6.21094791,74.8411701 9.3310339,70.6362619 13.4912109,67.1061624 C22.4355917,59.4230049 34.9159355,55.5814836 50.9326172,55.5814836 C63.8291661,55.5814836 76.2055072,57.6579815 88.0620117,61.8110397 C90.3501092,62.6416514 92.1701594,64.0432873 93.5222168,66.0159901 C94.8742742,67.9886928 95.550293,70.0651907 95.550293,72.2455461 C95.550293,74.4259016 94.5622658,76.554312 92.5861816,78.6308411 C90.6100974,80.7073702 88.6860445,81.7456192 86.8139648,81.7456192 C84.9418852,81.7456192 82.6538221,81.3303196 79.949707,80.4997079 C71.8373617,78.0078731 62.8931152,76.7619743 53.1166992,76.7619743 C43.3402832,76.7619743 35.9560798,78.4231726 30.9638672,81.7456192 C25.9716548,85.0680657 23.4755859,89.1691491 23.4755859,94.0489924 C23.4755859,98.9288357 25.3476376,102.458882 29.0917969,104.639238 C32.8359561,106.819593 37.5680866,108.740354 43.2883301,110.401577 C49.0085735,112.0628 55.2487456,113.620174 62.0090332,115.073744 C68.7693208,116.527315 74.9574914,118.707637 80.5737305,121.614778 C93.886297,128.467324 100.54248,138.953638 100.54248,153.074036 C100.54248,164.07964 96.3823659,172.904756 88.0620117,179.54965 C79.3256399,187.025154 66.9492988,190.76285 50.9326172,190.76285 C33.8758914,190.76285 18.4834671,186.921329 4.75488281,179.238172 C1.84275888,177.161643 0.334717316,174.617933 0.230712891,171.606966 C0.126708465,168.595998 1.06273426,166.000376 3.03881836,163.82002 C5.01490245,161.639665 7.04295834,160.549504 9.12304688,160.549504 C11.2031354,160.549504 13.9072099,161.276278 17.2353516,162.729848 C27.0117676,167.090559 37.8280658,169.270882 49.6845703,169.270882 L49.6845703,169.270882 L49.6845703,169.270882 Z M169.933887,170.205315 C174.510082,170.205315 177.786172,169.841928 179.762256,169.115143 C181.73834,168.388358 183.870399,168.024971 186.158496,168.024971 C188.446594,168.024971 190.526651,168.907482 192.398731,170.672532 C194.27081,172.437582 195.206836,175.033204 195.206836,178.459477 C195.206836,181.88575 193.54279,184.325635 190.214649,185.779206 C182.934339,189.101652 176.694167,190.76285 171.493946,190.76285 C166.293724,190.76285 161.561594,190.503288 157.297412,189.984156 C153.033231,189.465024 148.925118,188.063388 144.972949,185.779206 C135.612551,180.38023 130.932422,170.828339 130.932422,157.123248 L130.932422,78.0078855 L112.835742,78.0078855 C109.71561,78.0078855 108.051564,76.3466872 107.843555,73.0242407 C107.843555,71.5706703 108.675578,70.2209466 110.339649,68.9750292 L144.972949,35.0239486 C146.429011,33.5703782 147.885051,32.7916914 149.341114,32.6878651 C150.797176,32.5840387 151.941207,33.0512507 152.773242,34.0895152 C153.605278,35.1277796 154.021289,36.3736784 154.021289,37.8272488 L154.021289,58.0733061 L183.038379,58.0733061 C185.950503,58.0733061 188.342569,59.0077302 190.214649,60.8766063 C192.086728,62.7454824 193.022754,65.133455 193.022754,68.0405958 C193.022754,70.9477366 192.086728,73.3357092 190.214649,75.2045853 C188.342569,77.0734614 185.950503,78.0078855 183.038379,78.0078855 L154.021289,78.0078855 L154.021289,155.254381 C154.021289,161.691621 155.997344,166.052267 159.949512,168.336449 C162.0296,169.582366 165.357692,170.205315 169.933887,170.205315 L169.933887,170.205315 L169.933887,170.205315 Z M269.902441,55.5814836 C289.663283,55.5814836 305.575721,61.8109775 317.640234,74.2701519 C329.704747,86.9369792 335.528908,103.237488 335.112891,123.172167 C335.112891,143.314499 329.28873,159.615008 317.640234,172.074182 C305.575721,184.533357 289.663283,190.76285 269.902441,190.76285 C249.933592,190.76285 234.125155,184.533357 222.47666,172.074182 C210.412147,159.615008 204.379981,143.314499 204.379981,123.172167 C204.379981,102.822182 210.412147,86.5216735 222.47666,74.2701519 C234.125155,61.8109775 249.933592,55.5814836 269.902441,55.5814836 L269.902441,55.5814836 L269.902441,55.5814836 Z M241.35337,159.147853 C245.409543,162.781779 249.985668,165.429314 255.081886,167.090537 C260.178102,168.751761 265.118237,169.58236 269.902441,169.58236 C274.686646,169.58236 279.57478,168.751761 284.566992,167.090537 C289.559204,165.429314 294.135332,162.729867 298.295508,158.992114 C307.447898,150.685998 312.024023,138.64231 312.024023,122.860689 C312.024023,107.494374 307.447898,95.554511 298.295508,87.0407418 C290.599181,79.9805431 281.134921,76.5543213 269.902441,76.7619743 C251.389653,76.7619743 238.597301,85.067966 231.525,101.680199 C229.028895,107.702133 227.780859,114.866051 227.780859,123.172167 C227.780859,131.478283 229.028895,138.642201 231.525,144.664136 C234.021107,150.68607 237.297198,155.513928 241.35337,159.147853 L241.35337,159.147853 L241.35337,159.147853 Z M467.530664,171.451227 C469.194735,173.527756 470.026758,176.071466 470.026758,179.082433 C470.026758,182.0934 468.934729,184.585197 466.750636,186.5579 C464.566543,188.530603 462.122474,189.516939 459.418359,189.516939 C455.258183,189.516939 451.722086,187.959566 448.809961,184.844772 L404.816309,125.041034 L382.663477,145.287091 L382.663477,177.992261 C382.663477,181.107054 381.519445,183.806501 379.231348,186.090683 C376.943251,188.374865 374.239176,189.516939 371.119043,189.516939 C367.99891,189.516939 365.294835,188.374865 363.006738,186.090683 C360.718641,183.806501 359.574609,181.107054 359.574609,177.992261 L359.574609,12.2860689 C359.574609,9.17127532 360.66664,6.47182802 362.850734,4.18764603 C365.034827,1.90346405 367.790902,0.761390187 371.119043,0.761390187 C374.239176,0.761390187 376.943251,1.90346405 379.231348,4.18764603 C381.519445,6.47182802 382.663477,9.17127532 382.663477,12.2860689 L382.663477,116.631133 L443.505762,60.5651285 C446.209877,58.4885994 449.277962,57.4503505 452.710109,57.4503505 C456.142255,57.4503505 458.638322,58.6443368 460.19839,61.0323452 C461.758455,63.4203537 462.538477,65.5487641 462.538477,67.4176402 C462.538477,71.1553924 461.082437,74.4777891 458.170312,77.3849299 L421.35293,110.401577 L467.530664,171.451227 L467.530664,171.451227 Z M514.145215,79.5652745 C526.20973,63.5760006 539.626099,55.5814836 554.394727,55.5814836 L555.642773,55.5814836 C558.762906,55.5814836 561.41498,56.6716451 563.599073,58.8520006 C565.783167,61.0323561 566.875195,63.7837159 566.875195,67.1061624 C566.875195,70.4286089 565.731166,73.0761437 563.443066,75.0488464 C561.154969,77.0215491 558.346893,78.0078855 555.01875,78.0078855 L553.770703,78.0078855 C545.242341,78.0078855 537.650131,80.0843834 530.993848,84.2374416 C524.337564,88.3904998 518.721411,93.7893943 514.145215,100.434287 L514.145215,177.992261 C514.145215,181.107054 513.001185,183.806501 510.713086,186.090683 C508.424989,188.374865 505.720914,189.516939 502.600781,189.516939 C499.480649,189.516939 496.776576,188.374865 494.488477,186.090683 C492.20038,183.806501 491.056348,181.107054 491.056348,177.992261 L491.056348,68.6635514 C491.056348,65.5487579 492.148379,62.7973981 494.332472,60.4093896 C496.516565,58.0213811 499.272641,56.8273949 502.600781,56.8273949 C505.720914,56.8273949 508.424989,57.9694686 510.713086,60.2536507 C513.001185,62.5378328 514.145215,65.3411049 514.145215,68.6635514 L514.145215,79.5652745 L514.145215,79.5652745 Z" id="Shape"></path>
                </g>
                <g id="smoke" transform="translate(129.906250, 0.000000)" fill="#FFFFFF" sketch:type="MSShapeGroup">
                    <path d="M58.2680925,53.9593015 C60.4825747,54.8709401 62.9090208,55.3738318 65.453125,55.3738318 C75.8688703,55.3738318 84.3125,46.9446508 84.3125,36.546729 C84.3125,36.3614328 84.3098186,36.1767618 84.3044923,35.9927525 L84.3044923,35.9927525 C90.8508254,33.0397768 95.40625,26.4645177 95.40625,18.8271028 C95.40625,8.42918105 86.9626203,0 76.546875,0 C73.7785164,0 71.1494723,0.595455572 68.78125,1.66506747 L68.78125,1.66506747 C66.4130277,0.595455572 63.7839836,0 61.015625,0 C53.3651185,0 46.7785885,4.54762938 43.820551,11.0827604 C43.6362264,11.0774432 43.4512387,11.0747664 43.265625,11.0747664 C35.165886,11.0747664 28.2587437,16.1721432 25.5875209,23.3287822 C20.999199,25.035522 17.2558783,28.4744928 15.1554634,32.8491555 C8.91826578,35.8335924 4.57986707,42.1405762 4.44093682,49.4733739 C1.81547075,50.7168819 0,53.3874451 0,56.4813084 C0,58.128401 0.514544555,59.655521 1.39192092,60.911215 L1.39192092,60.911215 C0.514544555,62.166909 0,63.6940289 0,65.3411215 C0,66.1814834 0.133942883,66.9906147 0.38167902,67.7484005 L0.38167902,67.7484005 C0.135294011,68.3749563 0,69.0572195 0,69.771028 C0,72.8292404 2.48342054,75.3084112 5.546875,75.3084112 C7.36161042,75.3084112 8.97280234,74.4384292 9.98478125,73.0934579 C12.157074,73.093347 14.1210162,72.2028215 15.530344,70.7675532 C15.8890749,70.8403096 16.2603819,70.8785047 16.640625,70.8785047 C18.5082938,70.8785047 20.1603717,69.9570303 21.1655461,68.5446558 L21.1655461,68.5446558 C21.8651212,68.6232065 22.5762785,68.6635514 23.296875,68.6635514 C28.4243601,68.6635514 33.0739196,66.6208094 36.4734985,63.306059 C38.2576198,63.9075599 40.1687889,64.2336449 42.15625,64.2336449 C49.2955017,64.2336449 55.4503208,60.0260007 58.2680925,53.9593015 L58.2680925,53.9593015 Z" id="Oval-10"></path>
                </g>
            </g>
        </g>
    </g>
</svg>

<svg width="567" height="236" viewBox="0 0 567 236" xmlns="http://www.w3.org/2000/svg"><title>stokr + smoke</title><g fill="none" fill-rule="evenodd"><g transform="translate(0 44.3)" fill="#AAB8BF"><rect x="107.719" y="32.117" width="46.5" height="46" rx="2"/><path d="M49.685 169.27c18.928 0 28.289-5.917 28.08-17.753 0-3.738-1.871-6.645-5.616-8.722-3.744-2.076-8.424-3.841-14.04-5.295a2199.013 2199.013 0 0 0-18.409-4.672c-6.656-1.661-12.896-3.945-18.72-6.853-5.825-2.907-10.609-6.696-14.353-11.368-3.744-4.673-5.616-10.435-5.616-17.287 0-6.853 1.04-12.72 3.12-17.599 2.08-4.88 5.2-9.085 9.36-12.615 8.945-7.683 21.425-11.525 37.442-11.525 12.896 0 25.273 2.077 37.129 6.23 2.288.83 4.108 2.232 5.46 4.205 1.352 1.973 2.028 4.05 2.028 6.23 0 2.18-.988 4.308-2.964 6.385-1.976 2.076-3.9 3.115-5.772 3.115-1.872 0-4.16-.416-6.864-1.246-8.113-2.492-17.057-3.738-26.833-3.738-9.777 0-17.16 1.661-22.153 4.984-4.992 3.322-7.488 7.423-7.488 12.303 0 4.88 1.872 8.41 5.616 10.59 3.744 2.18 8.476 4.101 14.196 5.763 5.72 1.66 11.96 3.218 18.721 4.672 6.76 1.453 12.948 3.634 18.565 6.54 13.312 6.853 19.968 17.34 19.968 31.46 0 11.006-4.16 19.83-12.48 26.476-8.736 7.475-21.113 11.213-37.13 11.213-17.056 0-32.449-3.842-46.177-11.525-2.912-2.076-4.42-4.62-4.524-7.631-.104-3.011.832-5.607 2.808-7.787 1.976-2.18 4.004-3.27 6.084-3.27s4.784.726 8.112 2.18c9.777 4.36 20.593 6.54 32.45 6.54zm120.249.935c4.576 0 7.852-.363 9.828-1.09 1.976-.727 4.108-1.09 6.396-1.09 2.289 0 4.369.882 6.24 2.648 1.873 1.765 2.809 4.36 2.809 7.786 0 3.427-1.664 5.867-4.992 7.32-7.28 3.323-13.52 4.984-18.721 4.984-5.2 0-9.932-.26-14.197-.779-4.264-.519-8.372-1.92-12.324-4.205-9.36-5.399-14.04-14.95-14.04-28.656V78.008h-18.097c-3.12 0-4.784-1.661-4.992-4.984 0-1.453.832-2.803 2.496-4.049l34.633-33.951c1.456-1.454 2.912-2.232 4.368-2.336 1.456-.104 2.6.363 3.432 1.402.832 1.038 1.248 2.284 1.248 3.737v20.246h29.017c2.913 0 5.305.935 7.177 2.804 1.872 1.868 2.808 4.256 2.808 7.164 0 2.907-.936 5.295-2.808 7.164-1.872 1.868-4.264 2.803-7.177 2.803h-29.017v77.246c0 6.438 1.976 10.798 5.929 13.082 2.08 1.246 5.408 1.87 9.984 1.87zm99.968-114.624c19.761 0 35.674 6.23 47.738 18.69 12.065 12.666 17.889 28.966 17.473 48.901 0 20.142-5.824 36.443-17.473 48.902-12.064 12.46-27.977 18.689-47.738 18.689-19.968 0-35.777-6.23-47.425-18.689-12.065-12.459-18.097-28.76-18.097-48.902 0-20.35 6.032-36.65 18.097-48.902 11.648-12.459 27.457-18.689 47.425-18.689zm-28.549 103.567c4.057 3.634 8.633 6.281 13.729 7.943 5.096 1.66 10.036 2.491 14.82 2.491 4.785 0 9.673-.83 14.665-2.491 4.992-1.662 9.568-4.361 13.729-8.099 9.152-8.306 13.728-20.35 13.728-36.131 0-15.367-4.576-27.306-13.728-35.82-7.697-7.06-17.161-10.487-28.394-10.279-18.512 0-31.305 8.306-38.377 24.918-2.496 6.022-3.744 13.186-3.744 21.492 0 8.306 1.248 15.47 3.744 21.492 2.496 6.022 5.772 10.85 9.828 14.484zm226.178 12.303c1.664 2.077 2.496 4.62 2.496 7.631s-1.092 5.503-3.276 7.476c-2.184 1.973-4.629 2.959-7.333 2.959-4.16 0-7.696-1.557-10.608-4.672l-43.994-59.804-22.153 20.246v32.705c0 3.115-1.144 5.815-3.432 8.099-2.288 2.284-4.992 3.426-8.112 3.426s-5.824-1.142-8.112-3.426c-2.288-2.284-3.432-4.984-3.432-8.099V12.286c0-3.115 1.092-5.814 3.276-8.098 2.184-2.285 4.94-3.427 8.268-3.427 3.12 0 5.824 1.142 8.112 3.427 2.288 2.284 3.432 4.983 3.432 8.098v104.345l60.843-56.066c2.704-2.076 5.772-3.115 9.204-3.115 3.432 0 5.928 1.194 7.488 3.582 1.56 2.388 2.34 4.517 2.34 6.386 0 3.737-1.456 7.06-4.368 9.967l-36.817 33.017 46.178 61.05zm46.614-91.886c12.065-15.989 25.481-23.984 40.25-23.984h1.248c3.12 0 5.772 1.09 7.956 3.271 2.184 2.18 3.276 4.932 3.276 8.254 0 3.323-1.144 5.97-3.432 7.943-2.288 1.973-5.096 2.959-8.424 2.959h-1.248c-8.529 0-16.12 2.076-22.777 6.23-6.656 4.152-12.273 9.551-16.849 16.196v77.558c0 3.115-1.144 5.815-3.432 8.099-2.288 2.284-4.992 3.426-8.112 3.426s-5.824-1.142-8.113-3.426c-2.288-2.284-3.432-4.984-3.432-8.099V68.664c0-3.115 1.092-5.867 3.276-8.255 2.185-2.388 4.94-3.582 8.269-3.582 3.12 0 5.824 1.142 8.112 3.427 2.288 2.284 3.432 5.087 3.432 8.41v10.901z"/></g><path d="M188.174 53.96a18.832 18.832 0 0 0 7.185 1.414c10.416 0 18.86-8.43 18.86-18.827 0-.186-.003-.37-.008-.554 6.546-2.953 11.101-9.528 11.101-17.166C225.313 8.43 216.87 0 206.453 0c-2.768 0-5.397.595-7.766 1.665A18.819 18.819 0 0 0 190.923 0c-7.65 0-14.237 4.548-17.195 11.083-.185-.006-.37-.008-.555-.008-8.1 0-15.007 5.097-17.678 12.254a18.911 18.911 0 0 0-10.432 9.52c-6.237 2.985-10.576 9.292-10.715 16.624a7.752 7.752 0 0 0-3.049 11.438 7.708 7.708 0 0 0-1.392 4.43c0 .84.134 1.65.382 2.407a5.542 5.542 0 0 0 5.165 7.56c1.815 0 3.426-.87 4.438-2.215 2.172 0 4.136-.89 5.546-2.325.358.072.73.11 1.11.11 1.868 0 3.52-.921 4.525-2.333.7.078 1.41.119 2.131.119 5.128 0 9.777-2.043 13.177-5.358 1.784.602 3.695.928 5.683.928 7.139 0 13.294-4.208 16.111-10.275z" fill="#FFF"/></g></svg>
